X:1
T:In black mourn I
T:Thomas Weelkes
T:In black mourn I
T:Second Part
C:Thomas Weelkes
%%score [ 1 2 3 ]
L:1/8
Q:1/4=80
M:4/4
K:G
V:1 treble nm="Soprano 1" snm="S 1"
V:2 treble nm="Soprano 2" snm="S 2"
V:3 tenor nm="Tenor" snm="T"
V:1
 z8 | z8 | z2 g2 d2 =f2 | e4 d4 | z2 e3 d c2 | B2 g3 =f e2 | d8 | z2 A2 c4- | c2 B2 A4 | B4 z4 | %10
w: ||Love hath for-|lorn me,|liv- ing in|thrall, liv- ing in|thrall,|liv- ing|_ _ in|thrall,|
 z2 g2 d2 =f2 | e4 d4 | z2 e3 d c2 | B2 g3 =f e2 | d8 | z2 A2 c4- | c2 B2 A4 | B8 | %18
w: O cru- el|speed- ing,|fraught _ with|gall, fraught _ with|gall,|fraught _|_ _ with|gall.|
[M:3/4][Q:3/4=120] d2 B2 e2 | d4 d2 | c4 B2 |[M:4/4][Q:3/4=80] A2 d2 d2 d2 | d4 z2 e2 | d3 c B3 A | %24
w: My shep- herd's|pipe will|sound no|deal, My we- ther's|bell, rings|dole- * * ful|
 G2 dc B3 A | G4 z2 e2 | e2 d2 e2 c2 | c2 BB c2 =f2 | =f2 e2 f2 d2 | d2 ^cc d2 g2- | g=f e2 d2 c2 | %31
w: knell, dole- * * ful|knell, My|cur- tal dog, that|wont to have play'd, My|cur- tal dog, that|wont to have play'd, Plays|_ not at all, Plays|
 B2 A2 B4 | A4 B2 G2 | F8 | z8 | z4 ^G4 | A8- | A4 G4 | =F8- | F4 E4- | E4 D4- | D4 ^C4 | %42
w: not at all,|but seems a-|fraid,||My|sighs|_ so|deep,|_ pro-|* cure|_ to|
 D4 z2 A2 | B3 G g4- | g4 z2 =f2 | e4 d4 | e4 g4- | g2 =f2 e2 d2 | c8 | B8 | ^c8 | z2 e2 =f2 e2 | %52
w: weep, With|how- ling noise,|_ to|see my|dole- *|||ful|plight;|How sighs re-|
 ^c8 | z2 e2 =f2 e2 | ^c2 c2 d2 c2 | A4 D4 | D2 A2 _B2 A2 | F4 DEFG | AB c4 z2 | GABc de =f2 | %60
w: sound!|How sighs re-|sound! How sighs re-|sighs re-|sound! through hark- less|ground, Like a thou- sand|van- quish'd men,|Like a thou- sand van- quish'd men,|
 z2 AB cde=f | g6 =f2 | e4 d4 | B4 z4 | z2 AB cde=f | g2 G2 B2 A2- | AG A2 F2 A2 | AG G4 F2 | G8 |] %69
w: Like a thou- sand van- quish'd|men in|blood- y|fight,|Like a thou- sand van- quish'd|men in blood- *|* * y fight, in|blood- * * y|fight.|
V:2
 z8 | z4 z2 d2 | G2 c2 B2 A2- | AG c4 B2 | c8 | z2 e3 d c2 | B6 d2 | c3 B A2 G2 | F2 G4 F2 | %9
w: |All|fear scorn I, _|_ all fear scorn|I,|liv- ing in|thrall, liv-|ing _ _ in|thrall, in _|
 G4 z2 d2 | G2 c2 B2 A2- | AG c4 B2 | c8 | z2 e3 d c2 | B6 d2 | c3 B A2 G2 | F2 G4 F2 | G8 | %18
w: thrall, All|help need- ing, All|_ _ help need-|ing,|fraught _ with|gall, fraught|with _ gall, fraught|_ _ with|gall.|
[M:3/4] B2 d2 c2 | B4 A2 | A4 G2 |[M:4/4] F4 z2 B2 | B2 B2 B4 | z2 e2 d3 c | B3 A G2 dc | %25
w: My shep- herd's|pipe will|sound no|deal, My|we- ther's bell,|rings dole- *|* ful knell, dole- *|
 B3 A G4- | G4 z2 e2 | e2 d2 e2 d2 | d2 ^cc d2 =f2- | f2 e2 =f2 e2 | d2 g3 =f e2 | d6 d2 | d4 d4 | %33
w: * ful knell,|_ My|cur- tal dog, that|wont to have dog, that|_ wont to have|play'd, Plays not at|all, but|seems a-|
 ^d8 | z8 | z4 B4 | c8- | c4 _B4 | A8- | A4 G4 | =F8 | E8 | F2 D2 F3 D | d6 d2 | B4 A4 | ^G4 A4 | %46
w: fraid,||My|sighs|_ so|deep,|_ pro-|cure|to|weep, With how- ling|noise, to|see my|dole- ful|
 c4 B4- | B2 A2 G4- | G2 E2 A4- | A4 ^G4 | A2 e2 =f2 e2 | ^c8 | z2 e2 =f2 e2 | ^c8 | A4 D2 E2 | %55
w: plight; to|_ _ see|_ my dole-|* ful|plight; How sighs re-|sound!|How sighs re-|sound!|How sighs re-|
 D2 A2 _B2 A2 | F8 | z2 DE FGAB | c2 z2 EFGA | Bc d2 z2 =FG | ABcd e3 d | c2 B3 A/G/ A2- | %62
w: sound! through hark- less|ground,|Like a thou- sand van- quish'd|men, Like a thou- sand|van- quish'd men, Like a|thou- sand van- quish'd men in|blood- * y _ fight,|
 AG G4 F2 | G4 DE=FG | AB c2 ABcd | e=f g4 f2 | e3 e d2 =f2 | e2 d3 c A2 | B8 |] %69
w: _ in blood- y|fight, Like a thou- sand|van- quish'd men, Like a thou- sand|van- quish'd men in|blood- y fight, in|blood- * * y|fight.|
V:3
 z8 | G4 D2 =F2 | E3 =F G2 D2 | E2 C2 G4 | z2 C3 B, A,2 | E2 C3 D E=F | G6 D2 | =F6 E2 | D8 | %9
w: |In black mourn|I, _ _ in|black mourn I,|liv- ing in|thrall, liv- ing in _|thrall, liv-|ing _|in|
 G,2 G2 D2 =F2 | E3 =F G2 D2 | E2 C2 G4 | z2 C3 B, A,2 | E2 C3 D E=F | G6 D2 | =F6 E2 | D8 | G,8 | %18
w: thrall, Heart is bleed-|ing, _ Heart is|bleed- * ing,|fraught _ with|gall, fraught _ with _|gall, fraught|_ _|with|gall.|
[M:3/4] G2 G2 C2 | G4 D2 | =F4 G2 |[M:4/4] D4 z2 G2 | G2 G2 G4 | G,4 G,4- | G,4 G,4 | G,4 z2 C2 | %26
w: My shep- herd's|pipe will|sound no|deal, My|we- ther's bell,|rings dole-|* ful|knell, My|
 C2 B,2 C3 D | E=F G2 C2 D2 | D2 A,2 D3 E | =FG A2 D2 C2 | B,2 C2 G,2 C2 | G2 F2 G2 G,2- | %32
w: cur- tal dog, that|wont to have play'd, My|cur- tal dog, that|wont to have play'd, Plays|not at all, but|seems a- fraid, but|
 G,2 F,2 G,3 A, | B,8 | z8 | E,8 | A,4 G,4 | =F,8- | F,4 G,4 | A,8 | A,8- | A,8 | D,8 | %43
w: _ seems a- *|fraid,||My|sighs so|deep,|_ pro-|cure|to|_|weep,|
 z2 G,2 B,3 G, | G4 D4 | E4 =F4 | E8- | E8- | E8 | E8 | A,8 | A,6 A,2 | A,4 A,4 | A,8 | %54
w: With how- ling|noise, to|see my|dole-|||ful|plight;|Hark! How|sighs re-|sound!|
 z2 A,2 _B,2 A,2 | F,2 F,2 G,2 F,2 | D,8- | D,8 | z2 A,B, CDEE | G2 G,A, B,CDE | =F2 z2 A,B,CD | %61
w: through hark- less|sound! through hark- less|ground,|_|Like a thou- sand van- quish'd|men, Like a thou- sand van- quish'd|men Like a thou- sand|
 E=F G4 D2 | E2 C2 D4 | G,2 G,A, B,CDE | =F6 C2- | CDE=F G2 D2 | E2 C2 D3 D | C2 B,2 D3 D | G,8 |] %69
w: van- quish'd men in|blood- * y|fight, Like a thou- sand van- quish'd|men, Like|_ a thou- sand van- quish'd|men in blood- y|fight, in blood- y|fight.|

